X:WFS 13-01 02
T:Lemonville
M:6/8
K:D
P:A
f2g| aba afd fgf fdA ded dAF G3 e2f gag gec efe ecA cBA gfe |1 f3 :|2 d3 ||
P:B
A2G| FGA ABc ded def gag gfe B3 e2d cea a3 cea a3 |1 cea gfe fdB :|2 cba gfe d3 |]

% WFS 14-01 50 =
